assets/icons/24px/stroke/hammer-24px.svg

<svg width="18" height="18" viewBox="0 0 18 18" fill="none" xmlns="http://www.w3.org/2000/svg">
<path fill-rule="evenodd" clip-rule="evenodd" d="M9.3129 3.11422L11.7879 4.40546L11.7984 4.41159C12.1042 4.59051 12.3005 4.90628 12.3316 5.2557L12.3731 5.72082C12.3741 5.73237 12.3773 5.7395 12.3804 5.74443C12.384 5.75006 12.3891 5.75518 12.3954 5.759C12.4017 5.76282 12.4074 5.76439 12.4118 5.76476C12.4151 5.76506 12.42 5.76493 12.4279 5.7616C13.041 5.50174 13.739 5.54708 14.3139 5.88349L14.4759 5.97831C15.0341 6.30492 15.2203 7.02236 14.9021 7.58106L13.5241 9.99999C13.2036 10.5625 12.4879 10.7605 11.9257 10.4316L11.7637 10.3367C11.1892 10.0006 10.8051 9.41374 10.7214 8.75203C10.7199 8.74055 10.7165 8.73362 10.7133 8.72891C10.7096 8.72352 10.7043 8.71867 10.698 8.71514C10.6917 8.71161 10.686 8.71027 10.6817 8.71006C10.6783 8.70989 10.6734 8.7102 10.6655 8.71387L10.2474 8.91002C9.93082 9.05849 9.56311 9.04372 9.25976 8.87153L6.81811 7.59989L6.80748 7.59367C6.37086 7.33819 6.17153 6.8161 6.31543 6.3366L6.47543 5.669C6.24822 5.59096 5.98453 5.55489 5.69106 5.54517C5.41882 5.53615 5.1513 5.54973 4.87938 5.56354C4.79977 5.56758 4.71978 5.57164 4.63918 5.57516C4.31941 5.58912 3.93614 5.59931 3.62839 5.50227C3.46111 5.44953 3.27761 5.35424 3.13905 5.17767C2.99728 4.997 2.9433 4.78335 2.9433 4.5711C2.9433 4.30336 3.05366 4.06911 3.19107 3.88342C3.32936 3.69653 3.51488 3.53087 3.72048 3.38725C4.13204 3.09977 4.68288 2.8597 5.28962 2.70257C6.49068 2.39153 8.04007 2.37466 9.3129 3.11422ZM3.94945 4.5544C3.95591 4.53868 3.9689 4.51341 3.99492 4.47825C4.05035 4.40335 4.14659 4.30942 4.29313 4.20706C4.58585 4.00259 5.02085 3.80517 5.54032 3.67064C6.58828 3.39925 7.84746 3.41533 8.81869 3.98363L8.82917 3.98977L11.2989 5.27822C11.3181 5.29174 11.3329 5.31487 11.3356 5.34454L11.3771 5.80965C11.4393 6.50806 12.1602 6.96114 12.8181 6.68232C13.14 6.5459 13.5061 6.56942 13.8089 6.74659L13.9709 6.84141C14.0509 6.88825 14.0834 6.99793 14.0332 7.08608L12.6552 9.505C12.6071 9.58931 12.5068 9.61296 12.4307 9.56845L12.2687 9.47364C11.9654 9.29619 11.7587 8.98362 11.7135 8.6265C11.6254 7.93038 10.8878 7.50511 10.2409 7.80852L9.8227 8.00466C9.8002 8.01522 9.77444 8.01418 9.75248 8.00133L9.74185 7.99511L7.30694 6.72698C7.27726 6.70608 7.26034 6.664 7.27384 6.62207L7.27967 6.60394L7.4637 5.83615C7.57396 5.45872 7.42943 4.99006 6.99917 4.80083C6.58097 4.61691 6.13171 4.55921 5.72416 4.54572C5.40547 4.53516 5.08185 4.55172 4.80457 4.56591C4.73136 4.56966 4.66137 4.57324 4.59557 4.57611C4.26479 4.59055 4.06479 4.58455 3.94945 4.5544Z" fill="white"/>
<path fill-rule="evenodd" clip-rule="evenodd" d="M2.66525 13.4881L6.46186 6.75444L7.33294 7.24558L3.52296 14.0029L3.515 14.0153C3.48502 14.0619 3.50259 14.1218 3.54338 14.1456L4.60484 14.7667C4.64102 14.7879 4.69143 14.7772 4.71468 14.7307L4.71907 14.7219L8.50473 7.83884L9.38094 8.32076L5.60406 15.1878C5.32246 15.7372 4.63831 15.9449 4.09981 15.6298L3.03835 15.0087C2.50607 14.6973 2.34245 14.0064 2.66525 13.4881Z" fill="white"/>
</svg>

<svg width="18" height="18" fill="none" xmlns="http://www.w3.org/2000/svg"><path fill-rule="evenodd" clip-rule="evenodd" d="M9.313 3.114l2.475 1.291.01.007c.306.179.502.494.534.844l.041.465a.05.05 0 0 0 .007.023c.004.006.01.011.015.015a.038.038 0 0 0 .017.006c.003 0 .008 0 .016-.003a2.105 2.105 0 0 1 1.886.121l.162.095c.558.327.744 1.044.426 1.603L13.524 10c-.32.563-1.036.76-1.598.432l-.162-.095a2.146 2.146 0 0 1-1.043-1.585.051.051 0 0 0-.008-.023.046.046 0 0 0-.015-.014.038.038 0 0 0-.016-.005c-.004 0-.009 0-.017.004l-.418.196a1.075 1.075 0 0 1-.987-.038L6.818 7.6l-.01-.006a1.093 1.093 0 0 1-.493-1.257l.16-.668a2.709 2.709 0 0 0-.784-.124 9.628 9.628 0 0 0-.812.019l-.24.011c-.32.014-.703.024-1.01-.073a.985.985 0 0 1-.49-.324.963.963 0 0 1-.196-.607c0-.268.11-.502.248-.688.138-.186.324-.352.53-.496.411-.287.962-.527 1.569-.684 1.2-.311 2.75-.328 4.023.411zm-5.364 1.44a.366.366 0 0 1 .046-.076c.055-.075.152-.169.298-.27.293-.205.728-.403 1.247-.537 1.048-.272 2.307-.256 3.279.313l.01.006 2.47 1.288a.09.09 0 0 1 .037.067l.041.465a1.041 1.041 0 0 0 1.441.872c.322-.136.688-.113.99.065l.163.094c.08.047.112.157.062.245l-1.378 2.419a.162.162 0 0 1-.224.063l-.162-.094a1.147 1.147 0 0 1-.556-.848 1.04 1.04 0 0 0-1.472-.817l-.418.196A.075.075 0 0 1 9.753 8l-.011-.006-2.435-1.268a.094.094 0 0 1-.033-.105l.006-.018.184-.768c.11-.377-.035-.846-.465-1.035-.418-.184-.867-.242-1.275-.255-.319-.01-.642.006-.92.02a28.17 28.17 0 0 1-.208.01c-.331.015-.531.009-.647-.022z" fill="#fff"/><path fill-rule="evenodd" clip-rule="evenodd" d="M2.665 13.488l3.797-6.734.87.492-3.809 6.757-.008.012a.094.094 0 0 0 .028.13l1.062.622c.036.02.086.01.11-.036l.004-.01L8.505 7.84l.876.482-3.777 6.867c-.282.55-.966.757-1.504.442l-1.062-.621a1.094 1.094 0 0 1-.373-1.52z" fill="#fff"/></svg>
